;FLAVOR:Marlin
;TIME:6312
;Filament used: 4.10261m
;Layer height: 0.2
;MINX:86.002
;MINY:91.961
;MINZ:0.2
;MAXX:134.751
;MAXY:143.209
;MAXZ:50
;Generated with Cura_SteamEngine 5.4.0
M140 S50
M105
M190 S50
M104 S200
M105
M109 S200
M82 ;absolute extrusion mode
; Ender 3 Custom Start G-code
G92 E0 ; Reset Extruder
G28 ; Home all axes
G1 Z2.0 F3000 ; Move Z Axis up little to prevent scratching of Heat Bed
G1 X0.1 Y20 Z0.3 F5000.0 ; Move to start position
G1 X0.1 Y200.0 Z0.3 F1500.0 E15 ; Draw the first line
G1 X0.4 Y200.0 Z0.3 F5000.0 ; Move to side a little
G1 X0.4 Y20 Z0.3 F1500.0 E30 ; Draw the second line
G92 E0 ; Reset Extruder
G1 Z2.0 F3000 ; Move Z Axis up little to prevent scratching of Heat Bed
G1 X5 Y20 Z0.3 F5000.0 ; Move over to prevent blob squish
G92 E0
G92 E0
G1 F2700 E-5
;LAYER_COUNT:250
;LAYER:0
M107
G0 F6000 X93.572 Y98.3 Z0.2
;TYPE:SKIRT
G1 F2700 E0
G1 F1200 X94.008 Y97.91 E0.01946
G1 X94.66 Y97.357 E0.04789
G1 X95.071 Y97.027 E0.06542
G1 X96.042 Y96.294 E0.10589
G1 X97.005 Y95.615 E0.14508
G1 X97.823 Y95.093 E0.17735
G1 X98.559 Y94.705 E0.20502
G1 X100.254 Y93.893 E0.26754
G1 X101.338 Y93.447 E0.30652
G1 X102.457 Y93.06 E0.3459
G1 X103.382 Y92.77 E0.37815
G1 X103.988 Y92.599 E0.39909
G1 X105.257 Y92.282 E0.44259
G1 X106.212 Y92.091 E0.47498
G1 X107.142 Y91.987 E0.50611
G1 X107.963 Y91.961 E0.53343
G1 X110.639 Y91.978 E0.62244
G1 X110.879 Y91.971 E0.63042
G1 X112.873 Y91.977 E0.69674
G1 X113.848 Y92.013 E0.72919
G1 X114.778 Y92.129 E0.76037
G1 X115.694 Y92.323 E0.79151
G1 X116.667 Y92.572 E0.82491
G1 X117.644 Y92.851 E0.85871
G1 X118.199 Y93.028 E0.87808
G1 X119.149 Y93.363 E0.91159
G1 X120.029 Y93.697 E0.94289
G1 X120.905 Y94.075 E0.97462
G1 X121.589 Y94.419 E1.00009
G1 X122.524 Y94.93 E1.03553
G1 X122.92 Y95.159 E1.05074
G1 X124.036 Y95.832 E1.09409
G1 X124.828 Y96.342 E1.12542
G1 X125.614 Y96.908 E1.15764
G1 X126.259 Y97.458 E1.18583
G1 X127.268 Y98.39 E1.23151
G1 X127.708 Y98.818 E1.25193
G1 X128.335 Y99.469 E1.28199
G1 X128.635 Y99.795 E1.29673
G1 X129.232 Y100.472 E1.32675
G1 X129.801 Y101.17 E1.3567
G1 X130.31 Y101.85 E1.38495
G1 X130.735 Y102.464 E1.40979
G1 X131.2 Y103.177 E1.4381
G1 X131.537 Y103.732 E1.4597
G1 X131.878 Y104.34 E1.48288
G1 X132.128 Y104.808 E1.50053
G1 X132.436 Y105.423 E1.52341
G1 X132.629 Y105.839 E1.53866
G1 X132.929 Y106.534 E1.56384
G1 X133.297 Y107.468 E1.59723
G1 X133.522 Y108.094 E1.61935
G1 X133.767 Y108.862 E1.64616
G1 X133.985 Y109.653 E1.67345
G1 X134.145 Y110.311 E1.69598
G1 X134.346 Y111.279 E1.72886
G1 X134.467 Y111.973 E1.75229
G1 X134.571 Y112.718 E1.77731
G1 X134.661 Y113.496 E1.80336
G1 X134.703 Y113.991 E1.81988
G1 X134.747 Y114.91 E1.85048
G1 X134.751 Y115.613 E1.87386
G1 X134.736 Y116.321 E1.89742
G1 X134.705 Y116.946 E1.91823
G1 X134.633 Y117.826 E1.9476
G1 X134.556 Y118.507 E1.97039
G1 X134.465 Y119.103 E1.99044
G1 X134.296 Y120.057 E2.02267
G1 X134.181 Y120.621 E2.04181
G1 X134.01 Y121.325 E2.06591
G1 X133.837 Y121.976 E2.08831
G1 X133.691 Y122.47 E2.10545
G1 X133.465 Y123.156 E2.12947
G1 X132.528 Y125.782 E2.2222
G1 X131.796 Y128.005 E2.30004
G1 X131.402 Y129.018 E2.3362
G1 X131.001 Y129.903 E2.36851
G1 X130.552 Y130.783 E2.40137
G1 X130.108 Y131.542 E2.43062
G1 X129.026 Y133.259 E2.49812
G1 X127.068 Y136.522 E2.62469
G1 X126.343 Y137.577 E2.66726
G1 X126.123 Y137.858 E2.67913
G1 X125.492 Y138.592 E2.71133
G1 X124.935 Y139.144 E2.73741
G1 X124.65 Y139.406 E2.75028
G1 X123.905 Y140.031 E2.78263
G1 X123.141 Y140.567 E2.81367
G1 X122.791 Y140.79 E2.82747
G1 X122.09 Y141.201 E2.8545
G1 X121.47 Y141.532 E2.87787
G1 X120.622 Y141.937 E2.90913
G1 X119.644 Y142.3 E2.94383
G1 X119.296 Y142.41 E2.95597
G1 X118.358 Y142.662 E2.98827
G1 X117.504 Y142.815 E3.01713
G1 X116.717 Y142.917 E3.04352
G1 X116.199 Y142.97 E3.06084
G1 X115.1 Y143.024 E3.09744
G1 X113.951 Y143.017 E3.13565
G1 X112.862 Y142.994 E3.17188
G1 X110.332 Y143.013 E3.25603
G1 X107.804 Y143.103 E3.34017
G1 X106.197 Y143.195 E3.3937
G1 X105.259 Y143.209 E3.42491
G1 X104.538 Y143.165 E3.44893
G1 X103.945 Y143.108 E3.46875
G1 X102.644 Y142.903 E3.51255
G1 X102.298 Y142.825 E3.52435
G1 X101.373 Y142.575 E3.55622
G1 X100.83 Y142.387 E3.57533
G1 X100.183 Y142.144 E3.59832
G1 X99.353 Y141.788 E3.62835
G1 X98.32 Y141.224 E3.6675
G1 X97.927 Y140.981 E3.68287
G1 X97.123 Y140.431 E3.71527
G1 X96.369 Y139.81 E3.74776
G1 X95.63 Y139.08 E3.78231
G1 X95.281 Y138.699 E3.79949
G1 X94.669 Y137.967 E3.83122
G1 X94.204 Y137.314 E3.85789
G1 X93.516 Y136.245 E3.90017
G1 X93.055 Y135.47 E3.93016
G1 X91.219 Y132.509 E4.04604
G1 X90.845 Y131.929 E4.06899
G1 X90.487 Y131.344 E4.09181
G1 X89.953 Y130.351 E4.12931
G1 X89.586 Y129.574 E4.15789
G1 X89.233 Y128.764 E4.18727
G1 X88.907 Y127.888 E4.21836
G1 X88.326 Y126.103 E4.2808
G1 X87.339 Y123.313 E4.37923
G1 X86.953 Y122.108 E4.42131
G1 X86.767 Y121.438 E4.44444
G1 X86.579 Y120.674 E4.47061
G1 X86.409 Y119.835 E4.49908
G1 X86.213 Y118.616 E4.54015
G1 X86.125 Y117.918 E4.56355
G1 X86.067 Y117.3 E4.58419
G1 X86.02 Y116.617 E4.60696
G1 X86.003 Y116.085 E4.62467
G1 X86.002 Y115.004 E4.66062
G1 X86.03 Y114.406 E4.68053
G1 X86.086 Y113.586 E4.70787
G1 X86.146 Y112.925 E4.72994
G1 X86.209 Y112.414 E4.74707
G1 X86.291 Y111.869 E4.7654
G1 X86.389 Y111.31 E4.78427
G1 X86.547 Y110.536 E4.81055
G1 X86.708 Y109.835 E4.83447
G1 X86.97 Y108.879 E4.86744
G1 X87.131 Y108.363 E4.88542
G1 X87.383 Y107.643 E4.91079
G1 X87.638 Y106.971 E4.9347
G1 X87.843 Y106.467 E4.95279
G1 X88.225 Y105.623 E4.98361
G1 X88.625 Y104.803 E5.01395
G1 X88.982 Y104.131 E5.03926
G1 X89.239 Y103.686 E5.05635
G1 X89.7 Y102.933 E5.08572
G1 X89.997 Y102.476 E5.10385
G1 X90.345 Y101.97 E5.12427
G1 X90.85 Y101.293 E5.15236
G1 X91.435 Y100.571 E5.18327
G1 X91.838 Y100.103 E5.20381
G1 X92.65 Y99.213 E5.24388
G1 X93.195 Y98.658 E5.26975
G1 X93.572 Y98.3 E5.28704
G0 F6000 X93.839 Y98.598
G1 F1200 X94.266 Y98.215 E5.30612
G1 X94.911 Y97.669 E5.33423
G1 X95.312 Y97.346 E5.35136
G1 X96.272 Y96.621 E5.39137
G1 X97.221 Y95.952 E5.42999
G1 X98.01 Y95.447 E5.46114
G1 X98.732 Y95.066 E5.4883
G1 X100.407 Y94.263 E5.55008
G1 X101.469 Y93.825 E5.58829
G1 X102.577 Y93.442 E5.62728
G1 X103.491 Y93.155 E5.65914
G1 X104.085 Y92.987 E5.67967
G1 X105.336 Y92.674 E5.72256
G1 X106.256 Y92.489 E5.75378
G1 X107.186 Y92.385 E5.7849
G1 X107.96 Y92.361 E5.81066
G1 X110.648 Y92.378 E5.90006
G1 X110.878 Y92.371 E5.90771
G1 X112.859 Y92.377 E5.9736
G1 X113.798 Y92.41 E6.00485
G1 X114.728 Y92.526 E6.03603
G1 X115.595 Y92.71 E6.0655
G1 X116.557 Y92.957 E6.09854
G1 X117.523 Y93.232 E6.13194
G1 X118.066 Y93.405 E6.1509
G1 X119.007 Y93.737 E6.18409
G1 X119.871 Y94.064 E6.21481
G1 X120.725 Y94.432 E6.24574
G1 X121.397 Y94.77 E6.27076
G1 X122.324 Y95.276 E6.30589
G1 X122.713 Y95.501 E6.32083
G1 X123.82 Y96.169 E6.36384
G1 X124.595 Y96.667 E6.39448
G1 X125.355 Y97.213 E6.4256
G1 X125.988 Y97.752 E6.45325
G1 X126.989 Y98.676 E6.49856
G1 X127.42 Y99.096 E6.51858
G1 X128.041 Y99.74 E6.54833
G1 X128.335 Y100.059 E6.56276
G1 X128.922 Y100.725 E6.59229
G1 X129.481 Y101.41 E6.6217
G1 X129.981 Y102.077 E6.64942
G1 X130.4 Y102.683 E6.67393
G1 X130.858 Y103.385 E6.70181
G1 X131.188 Y103.928 E6.72294
G1 X131.525 Y104.528 E6.74583
G1 X131.77 Y104.987 E6.76313
G1 X132.073 Y105.591 E6.78561
G1 X132.262 Y105.998 E6.80053
G1 X132.557 Y106.681 E6.82528
G1 X132.921 Y107.604 E6.85828
G1 X133.141 Y108.215 E6.87988
G1 X133.381 Y108.969 E6.9062
G1 X133.596 Y109.747 E6.93304
G1 X133.753 Y110.393 E6.95515
G1 X133.952 Y111.348 E6.9876
G1 X134.071 Y112.028 E7.01056
G1 X134.174 Y112.764 E7.03528
G1 X134.262 Y113.53 E7.06092
G1 X134.303 Y114.011 E7.07698
G1 X134.347 Y114.912 E7.10698
G1 X134.351 Y115.605 E7.13003
G1 X134.337 Y116.301 E7.15318
G1 X134.306 Y116.914 E7.1736
G1 X134.236 Y117.781 E7.20253
G1 X134.161 Y118.446 E7.22479
G1 X134.071 Y119.033 E7.24454
G1 X133.904 Y119.977 E7.27643
G1 X133.792 Y120.527 E7.29509
G1 X133.624 Y121.222 E7.31888
G1 X133.453 Y121.863 E7.34094
G1 X133.311 Y122.345 E7.35765
G1 X133.088 Y123.022 E7.38136
G1 X132.151 Y125.648 E7.47409
G1 X131.423 Y127.86 E7.55155
G1 X131.029 Y128.873 E7.5877
G1 X130.645 Y129.721 E7.61866
G1 X130.207 Y130.581 E7.65076
G1 X129.77 Y131.329 E7.67957
G1 X128.683 Y133.053 E7.74736
G1 X126.738 Y136.296 E7.87314
G1 X126.027 Y137.331 E7.9149
G1 X125.819 Y137.598 E7.92616
G1 X125.21 Y138.308 E7.95727
G1 X124.664 Y138.85 E7.98286
G1 X124.393 Y139.1 E7.99512
G1 X123.675 Y139.704 E8.02633
G1 X122.926 Y140.23 E8.05677
G1 X122.589 Y140.445 E8.07006
G1 X121.901 Y140.848 E8.09658
G1 X121.297 Y141.171 E8.11936
G1 X120.482 Y141.562 E8.14943
G1 X119.523 Y141.919 E8.18346
G1 X119.192 Y142.024 E8.19501
G1 X118.287 Y142.268 E8.22619
G1 X117.452 Y142.418 E8.25441
G1 X116.676 Y142.519 E8.28043
G1 X116.179 Y142.57 E8.29705
G1 X115.08 Y142.624 E8.33365
G1 X113.959 Y142.617 E8.37093
G1 X112.867 Y142.594 E8.40726
G1 X110.318 Y142.613 E8.49204
G1 X107.79 Y142.703 E8.57618
G1 X106.174 Y142.796 E8.63002
G1 X105.253 Y142.809 E8.66065
G1 X104.576 Y142.767 E8.68321
G1 X104.007 Y142.713 E8.70222
G1 X102.732 Y142.513 E8.74515
G1 X102.402 Y142.439 E8.7564
G1 X101.504 Y142.197 E8.78733
G1 X100.971 Y142.013 E8.80608
G1 X100.341 Y141.776 E8.82847
G1 X99.511 Y141.42 E8.85851
G1 X98.53 Y140.883 E8.89571
G1 X98.152 Y140.65 E8.91047
G1 X97.377 Y140.122 E8.94166
G1 X96.65 Y139.525 E8.97295
G1 X95.925 Y138.809 E9.00684
G1 X95.588 Y138.442 E9.02342
G1 X94.976 Y137.71 E9.05515
G1 X94.53 Y137.082 E9.08077
G1 X93.86 Y136.041 E9.12194
G1 X93.399 Y135.266 E9.15194
G1 X91.559 Y132.298 E9.26808
G1 X91.186 Y131.72 E9.29096
G1 X90.828 Y131.135 E9.31377
G1 X90.315 Y130.18 E9.34983
G1 X89.953 Y129.414 E9.37801
G1 X89.608 Y128.624 E9.40668
G1 X89.287 Y127.764 E9.43721
G1 X88.706 Y125.979 E9.49965
G1 X87.72 Y123.191 E9.59801
G1 X87.338 Y122.001 E9.63957
G1 X87.155 Y121.343 E9.66229
G1 X86.971 Y120.594 E9.68794
G1 X86.804 Y119.771 E9.71587
G1 X86.61 Y118.566 E9.75647
G1 X86.523 Y117.881 E9.77943
G1 X86.466 Y117.273 E9.79975
G1 X86.42 Y116.604 E9.82205
G1 X86.403 Y116.085 E9.83932
G1 X86.402 Y115.022 E9.87468
G1 X86.429 Y114.433 E9.89429
G1 X86.484 Y113.622 E9.92132
G1 X86.543 Y112.974 E9.94296
G1 X86.605 Y112.473 E9.95975
G1 X86.685 Y111.938 E9.97775
G1 X86.781 Y111.39 E9.99625
G1 X86.937 Y110.625 E10.02222
G1 X87.094 Y109.941 E10.04556
G1 X87.352 Y108.998 E10.07808
G1 X87.509 Y108.495 E10.0956
G1 X87.757 Y107.785 E10.12062
G1 X88.009 Y107.122 E10.14421
G1 X88.214 Y106.618 E10.1623
G1 X88.585 Y105.798 E10.19224
G1 X88.985 Y104.978 E10.22258
G1 X89.328 Y104.331 E10.24694
G1 X89.58 Y103.895 E10.26369
G1 X90.035 Y103.151 E10.2927
G1 X90.327 Y102.702 E10.31051
G1 X90.665 Y102.209 E10.33039
G1 X91.161 Y101.545 E10.35796
G1 X91.738 Y100.832 E10.38846
G1 X92.134 Y100.372 E10.40865
G1 X92.935 Y99.493 E10.44821
G1 X93.47 Y98.948 E10.47361
G1 X93.839 Y98.598 E10.49052
G0 F6000 X93.745 Y99.238
G1 F1200 X94.106 Y98.896 E10.50706
G1 X94.525 Y98.52 E10.52579
G1 X95.162 Y97.98 E10.55356
G1 X95.553 Y97.665 E10.57026
G1 X96.503 Y96.948 E10.60985
G1 X97.437 Y96.289 E10.64787
G1 X98.197 Y95.801 E10.67791
G1 X98.905 Y95.427 E10.70454
G1 X100.56 Y94.633 E10.76559
G1 X101.6 Y94.203 E10.80302
G1 X102.697 Y93.824 E10.84162
G1 X103.6 Y93.54 E10.87311
G1 X104.182 Y93.375 E10.89323
G1 X105.416 Y93.066 E10.93554
G1 X106.301 Y92.886 E10.96558
G1 X107.199 Y92.785 E10.99563
G1 X107.957 Y92.761 E11.02086
G1 X110.658 Y92.778 E11.11069
G1 X110.877 Y92.771 E11.11798
G1 X112.846 Y92.777 E11.18347
G1 X113.749 Y92.807 E11.21352
G1 X114.645 Y92.917 E11.24355
G1 X115.495 Y93.097 E11.27244
G1 X116.448 Y93.342 E11.30517
G1 X117.402 Y93.613 E11.33816
G1 X117.933 Y93.782 E11.35669
G1 X118.866 Y94.111 E11.3896
G1 X119.713 Y94.431 E11.41971
G1 X120.545 Y94.789 E11.44984
G1 X121.205 Y95.121 E11.47441
G1 X122.124 Y95.623 E11.50924
G1 X122.506 Y95.843 E11.5239
G1 X123.604 Y96.506 E11.56656
G1 X124.362 Y96.992 E11.59651
G1 X125.096 Y97.518 E11.62654
G1 X125.717 Y98.046 E11.65365
G1 X126.71 Y98.962 E11.69859
G1 X127.132 Y99.374 E11.7182
G1 X127.747 Y100.011 E11.74765
G1 X128.035 Y100.323 E11.76178
G1 X128.612 Y100.978 E11.79081
G1 X129.161 Y101.65 E11.81967
G1 X129.652 Y102.305 E11.8469
G1 X130.065 Y102.902 E11.87104
G1 X130.516 Y103.593 E11.89849
G1 X130.839 Y104.124 E11.91916
G1 X131.172 Y104.716 E11.94175
G1 X131.412 Y105.166 E11.95871
G1 X131.71 Y105.76 E11.98082
G1 X131.895 Y106.157 E11.99538
G1 X132.185 Y106.828 E12.0197
G1 X132.545 Y107.74 E12.05231
G1 X132.76 Y108.336 E12.07338
G1 X132.995 Y109.076 E12.0992
G1 X133.207 Y109.842 E12.12564
G1 X133.361 Y110.475 E12.14731
G1 X133.558 Y111.417 E12.17932
G1 X133.675 Y112.084 E12.20184
G1 X133.777 Y112.809 E12.22619
G1 X133.863 Y113.564 E12.25146
G1 X133.903 Y114.031 E12.26705
G1 X133.947 Y114.914 E12.29646
G1 X133.951 Y115.597 E12.31917
G1 X133.937 Y116.281 E12.34193
G1 X133.907 Y116.882 E12.36194
G1 X133.839 Y117.736 E12.39044
G1 X133.766 Y118.385 E12.41216
G1 X133.677 Y118.963 E12.43161
G1 X133.512 Y119.897 E12.46316
G1 X133.403 Y120.433 E12.48135
G1 X133.238 Y121.119 E12.50482
G1 X133.069 Y121.75 E12.52654
G1 X132.931 Y122.22 E12.54284
G1 X132.711 Y122.888 E12.56623
G1 X131.774 Y125.514 E12.65896
G1 X131.05 Y127.715 E12.73603
G1 X130.656 Y128.728 E12.77218
G1 X130.289 Y129.54 E12.80181
G1 X129.862 Y130.379 E12.83313
G1 X129.432 Y131.116 E12.86151
G1 X128.34 Y132.847 E12.92958
G1 X126.408 Y136.07 E13.05456
G1 X125.697 Y137.105 E13.09632
G1 X125.515 Y137.338 E13.10616
G1 X124.928 Y138.024 E13.13619
G1 X124.393 Y138.556 E13.16128
G1 X124.135 Y138.794 E13.17296
G1 X123.445 Y139.377 E13.203
G1 X122.711 Y139.893 E13.23284
G1 X122.387 Y140.1 E13.24563
G1 X121.712 Y140.495 E13.27164
G1 X121.124 Y140.81 E13.29383
G1 X120.309 Y141.201 E13.32389
G1 X119.402 Y141.538 E13.35608
G1 X119.088 Y141.638 E13.36704
G1 X118.216 Y141.874 E13.39708
G1 X117.4 Y142.021 E13.42466
G1 X116.635 Y142.121 E13.45032
G1 X116.159 Y142.17 E13.46624
G1 X115.06 Y142.224 E13.50283
G1 X113.967 Y142.217 E13.53919
G1 X112.872 Y142.194 E13.57561
G1 X110.304 Y142.213 E13.66103
G1 X107.776 Y142.303 E13.74516
G1 X106.151 Y142.397 E13.7993
G1 X105.248 Y142.409 E13.82934
G1 X104.613 Y142.369 E13.8505
G1 X104.069 Y142.318 E13.86867
G1 X102.818 Y142.122 E13.91079
G1 X102.506 Y142.053 E13.92142
G1 X101.634 Y141.819 E13.95145
G1 X101.112 Y141.639 E13.96981
G1 X100.499 Y141.408 E13.9916
G1 X99.669 Y141.052 E14.02164
G1 X98.74 Y140.543 E14.05687
G1 X98.377 Y140.319 E14.07106
G1 X97.63 Y139.812 E14.10108
G1 X96.931 Y139.24 E14.13113
G1 X96.22 Y138.538 E14.16436
G1 X95.883 Y138.171 E14.18093
G1 X95.302 Y137.479 E14.21098
G1 X94.865 Y136.863 E14.2361
G1 X94.441 Y136.216 E14.26183
G1 X94.204 Y135.837 E14.2767
G1 X93.743 Y135.062 E14.30669
G1 X91.899 Y132.087 E14.42311
G1 X91.527 Y131.511 E14.44591
G1 X91.169 Y130.926 E14.46872
G1 X90.677 Y130.009 E14.50334
G1 X90.315 Y129.243 E14.53151
G1 X89.983 Y128.484 E14.55907
G1 X89.667 Y127.64 E14.58904
G1 X89.086 Y125.855 E14.65148
G1 X88.101 Y123.069 E14.74976
G1 X87.723 Y121.893 E14.79085
G1 X87.543 Y121.248 E14.81312
G1 X87.363 Y120.514 E14.83826
G1 X87.199 Y119.707 E14.86564
G1 X87.007 Y118.515 E14.9058
G1 X86.921 Y117.844 E14.9283
G1 X86.865 Y117.246 E14.94828
G1 X86.82 Y116.591 E14.97012
G1 X86.803 Y116.085 E14.98695
G1 X86.802 Y115.04 E15.02171
G1 X86.828 Y114.46 E15.04102
G1 X86.882 Y113.658 E15.06776
G1 X86.94 Y113.023 E15.08896
G1 X87.001 Y112.532 E15.10542
G1 X87.079 Y112.007 E15.12307
G1 X87.173 Y111.47 E15.14121
G1 X87.327 Y110.714 E15.16687
G1 X87.48 Y110.046 E15.18966
G1 X87.734 Y109.117 E15.22169
G1 X87.887 Y108.627 E15.23877
G1 X88.131 Y107.927 E15.26342
G1 X88.379 Y107.273 E15.28669
G1 X88.579 Y106.783 E15.30429
G1 X88.944 Y105.974 E15.33381
G1 X89.339 Y105.165 E15.36375
G1 X89.674 Y104.531 E15.3876
G1 X89.921 Y104.104 E15.40401
G1 X90.371 Y103.369 E15.43267
G1 X90.657 Y102.928 E15.45015
G1 X90.986 Y102.448 E15.46951
G1 X91.472 Y101.797 E15.49653
G1 X92.042 Y101.093 E15.52666
G1 X92.43 Y100.641 E15.54647
G1 X93.221 Y99.773 E15.58553
G1 X93.745 Y99.238 E15.61044
G1 F2700 E10.61044
G0 F6000 X101.14 Y106.545
G1 F2700 E15.61044
G1 F1200 X101.65 Y106.099 E15.63297
G1 X102.286 Y105.596 E15.65994
G1 X103.301 Y104.869 E15.70147
G1 X103.31 Y104.875 E15.70183
